X: 32921
T: Prampushing
R: reel
M: 4/4
K: Gmajor
G2AG FED2|G2AB c2Bc|d2de dcBA|GABG D4|
G2AG FED2|G2AB c2Bc|d2de dcBA|G2F2 G4:|
|:GABc d2d2|edcB c2Bc|d2de dcBA|GABG D4|
G2AG FED2|G2AB c2Bc|d2de dcBA|G2F2 G4:|

